tools/download-figma-icons/icons/outlined-large/motorcycle.svg

<svg width="64" height="64" viewBox="0 0 64 64" fill="none" xmlns="http://www.w3.org/2000/svg">
<path d="M52.4992 30.034C50.6582 30.034 48.9232 30.479 47.3783 31.25C46.7823 29.858 46.2373 28.426 45.7373 26.9941C46.7793 27.3281 48.0502 27.5431 49.6322 27.5431C50.0162 27.5431 50.4162 27.5301 50.8362 27.5051C51.6272 27.4561 52.2442 26.8021 52.2442 26.0101V18.0932C52.2442 17.3012 51.6272 16.6472 50.8362 16.5982C46.8113 16.3422 44.4773 17.3312 43.1223 18.5212C41.5984 13.2023 41.0894 11.6373 39.7574 11.1843C37.2894 10.3443 33.6935 12.6073 32.6515 13.3213C31.9685 13.7893 31.7955 14.7202 32.2625 15.4032C32.7305 16.0852 33.6655 16.2612 34.3475 15.7922C35.7004 14.8692 37.6174 13.9913 38.5144 13.9843C38.8594 14.6603 39.3744 16.3542 39.8854 18.1182C29.8375 18.9792 27.0506 23.1371 26.2886 25.2391C19.9657 26.2101 18.0907 22.4791 18.0177 22.3281C17.9507 22.1771 17.8577 22.0371 17.7447 21.9161C17.3567 21.5021 15.0618 19.4672 7.91788 20.2022C1.91797 20.8162 -0.0919986 23.4031 0.00999984 25.4321C0.118998 27.6 2.53696 29.921 8.99686 29.933C9.62785 29.934 10.2138 29.988 10.7738 30.07C4.77193 30.447 0 35.4299 0 41.5158C0 47.8477 5.15892 52.9986 11.4998 52.9986C17.0327 52.9986 21.6637 49.0757 22.7546 43.8698C24.4716 44.6438 27.1026 45.5338 30.2045 45.5338C32.6845 45.5338 35.4544 44.9628 38.2634 43.3038C38.7984 42.9878 39.0834 42.3738 38.9784 41.7608C38.9654 41.6878 37.8884 34.8919 43.9913 30.893C44.2673 31.588 44.5583 32.275 44.8593 32.957C42.4973 35.0619 41.0004 38.1139 41.0004 41.5148C41.0004 47.8467 46.1593 52.9977 52.5002 52.9977C58.8411 52.9977 64 47.8457 64 41.5148C64 35.1839 58.8411 30.032 52.5002 30.032L52.4992 30.034ZM49.2442 19.5592V24.5451C45.1283 24.4471 44.3943 22.6141 44.2653 22.0521C44.3943 21.4891 45.1273 19.6572 49.2442 19.5592ZM11.4998 50.0047C6.81289 50.0047 2.99995 46.1968 2.99995 41.5168C2.99995 36.8369 6.81289 33.029 11.4998 33.029C15.6738 33.029 19.1467 36.0519 19.8587 40.0189H17.8177C17.1377 37.1609 14.5668 35.0259 11.4998 35.0259C7.91588 35.0259 4.99992 37.9379 4.99992 41.5168C4.99992 45.0958 7.91588 48.0077 11.4998 48.0077C14.5668 48.0077 17.1377 45.8728 17.8177 43.0148H19.8587C19.1467 46.9817 15.6728 50.0047 11.4998 50.0047ZM11.4998 43.0148H14.6488C14.0848 44.1908 12.8908 45.0118 11.4998 45.0118C9.56985 45.0118 7.99988 43.4438 7.99988 41.5168C7.99988 39.5899 9.56985 38.0219 11.4998 38.0219C12.8908 38.0219 14.0848 38.8429 14.6488 40.0189H11.4998C10.6718 40.0189 9.99984 40.6898 9.99984 41.5168C9.99984 42.3438 10.6718 43.0148 11.4998 43.0148ZM35.9254 41.1698C30.1795 44.0608 24.7456 41.6228 22.9556 40.6378C22.9036 39.9489 22.7866 39.2789 22.6176 38.6289C22.6166 38.6189 22.6176 38.6099 22.6156 38.5999C21.9397 34.5749 18.2257 26.9561 9.00386 26.9371C4.50593 26.9281 3.02495 25.6441 3.00695 25.2811C2.98995 24.9511 4.25293 23.5881 8.22587 23.1821C13.1218 22.6801 15.0518 23.6551 15.4658 23.9061C16.2347 25.2481 19.4947 29.762 27.8116 28.004C28.4436 27.87 28.9215 27.3081 28.9955 26.6671C29.0015 26.6181 29.6835 21.8131 40.7304 21.0501C41.3564 23.2141 42.0773 25.6081 42.9263 28.032C36.2774 31.982 35.8194 38.5709 35.9254 41.1698ZM51.9022 43.1648C52.1782 43.3848 52.5092 43.4928 52.8382 43.4928C53.2782 43.4928 53.7152 43.2998 54.0112 42.9298C54.5291 42.2828 54.4231 41.3418 53.7762 40.8248C52.8902 40.1179 52.0732 39.2349 51.3072 38.2449C51.6812 38.1089 52.0792 38.0219 52.4992 38.0219C54.4291 38.0219 55.9991 39.5899 55.9991 41.5168C55.9991 43.4438 54.4291 45.0118 52.4992 45.0118C50.5692 45.0118 48.9992 43.4438 48.9992 41.5168C48.9992 41.1248 49.0792 40.7538 49.1982 40.4018C50.0332 41.4438 50.9272 42.3868 51.9022 43.1648ZM52.4992 50.0047C47.8123 50.0047 43.9993 46.1968 43.9993 41.5168C43.9993 39.3159 44.8503 37.3139 46.2313 35.8039C46.5673 36.4399 46.9203 37.0569 47.2863 37.6569C46.4813 38.7379 45.9993 40.0709 45.9993 41.5178C45.9993 45.0968 48.9152 48.0087 52.4992 48.0087C56.0831 48.0087 58.9991 45.0968 58.9991 41.5178C58.9991 37.9389 56.0831 35.0269 52.4992 35.0269C51.4592 35.0269 50.4782 35.2779 49.6062 35.7139C49.2732 35.1479 48.9512 34.5669 48.6432 33.9639C49.8022 33.372 51.1112 33.03 52.4992 33.03C57.1861 33.03 60.999 36.8379 60.999 41.5178C60.999 46.1978 57.1861 50.0047 52.4992 50.0047Z" fill="black"/>
</svg>

<svg xmlns="http://www.w3.org/2000/svg" width="64" height="64" fill="none" viewBox="0 0 64 64"><path fill="currentColor" d="M52.5 30.034c-1.842 0-3.577.445-5.122 1.216a67 67 0 0 1-1.64-4.256c1.041.334 2.312.55 3.894.55q.575 0 1.204-.039a1.5 1.5 0 0 0 1.408-1.495v-7.917c0-.792-.617-1.446-1.408-1.495-4.025-.256-6.359.733-7.714 1.923-1.524-5.319-2.033-6.884-3.365-7.337-2.468-.84-6.063 1.423-7.105 2.137a1.497 1.497 0 1 0 1.695 2.471c1.353-.923 3.27-1.8 4.167-1.808.345.676.86 2.37 1.371 4.134-10.047.861-12.834 5.02-13.596 7.121-6.323.971-8.198-2.76-8.271-2.91a1.5 1.5 0 0 0-.273-.413c-.388-.414-2.683-2.449-9.827-1.714-6 .614-8.01 3.201-7.908 5.23.109 2.168 2.527 4.489 8.987 4.501a12 12 0 0 1 1.777.137C4.772 30.447 0 35.43 0 41.516c0 6.332 5.159 11.483 11.5 11.483 5.533 0 10.164-3.923 11.255-9.13 1.717.775 4.348 1.665 7.45 1.665 2.48 0 5.25-.571 8.058-2.23.535-.316.82-.93.715-1.543-.013-.073-1.09-6.87 5.013-10.868q.415 1.042.868 2.064C42.497 35.062 41 38.114 41 41.515c0 6.332 5.16 11.483 11.5 11.483 6.341 0 11.5-5.152 11.5-11.483s-5.159-11.483-11.5-11.483zm-3.256-10.475v4.986c-4.116-.098-4.85-1.93-4.979-2.493.13-.563.862-2.395 4.98-2.493M11.5 50.005c-4.687 0-8.5-3.808-8.5-8.488s3.813-8.488 8.5-8.488c4.174 0 7.647 3.023 8.359 6.99h-2.041c-.68-2.858-3.251-4.993-6.318-4.993-3.584 0-6.5 2.912-6.5 6.49 0 3.58 2.916 6.492 6.5 6.492 3.067 0 5.638-2.135 6.318-4.993h2.04c-.711 3.967-4.185 6.99-8.358 6.99m0-6.99h3.149a3.5 3.5 0 0 1-3.15 1.997c-1.93 0-3.5-1.568-3.5-3.495a3.5 3.5 0 0 1 3.5-3.495c1.392 0 2.586.82 3.15 1.997h-3.15a1.5 1.5 0 0 0-1.5 1.498 1.5 1.5 0 0 0 1.5 1.498m24.425-1.845c-5.745 2.89-11.18.453-12.97-.532a11.4 11.4 0 0 0-.337-2.01l-.002-.028c-.676-4.025-4.39-11.644-13.612-11.663-4.498-.009-5.979-1.293-5.997-1.656-.017-.33 1.246-1.693 5.219-2.099 4.896-.502 6.826.473 7.24.724.769 1.342 4.029 5.856 12.346 4.098.632-.134 1.11-.696 1.183-1.337.006-.049.688-4.854 11.735-5.617.626 2.164 1.347 4.558 2.196 6.982-6.649 3.95-7.107 10.539-7 13.138m15.977 1.995a1.5 1.5 0 0 0 2.11-.235 1.496 1.496 0 0 0-.236-2.105c-.886-.707-1.703-1.59-2.469-2.58a3.5 3.5 0 0 1 1.192-.223c1.93 0 3.5 1.568 3.5 3.495a3.5 3.5 0 0 1-3.5 3.495c-1.93 0-3.5-1.568-3.5-3.495 0-.392.08-.763.2-1.115.834 1.042 1.728 1.985 2.703 2.763m.597 6.84c-4.687 0-8.5-3.808-8.5-8.488a8.44 8.44 0 0 1 2.232-5.713q.506.954 1.055 1.853A6.44 6.44 0 0 0 46 41.517c0 3.58 2.916 6.492 6.5 6.492s6.5-2.912 6.5-6.491c0-3.58-2.916-6.491-6.5-6.491a6.45 6.45 0 0 0-2.893.687 34 34 0 0 1-.963-1.75 8.46 8.46 0 0 1 3.856-.934c4.687 0 8.5 3.808 8.5 8.488s-3.813 8.487-8.5 8.487"/></svg>
